X: 1447
T: The Kerry Huntsman
M:C|
L:1/8
N:"collected by Stack"
B:O'Neill's 1447
Z:"Transcribed by Bob Safranek, rjs@gsp.org"
K:A
A2 cA BAcB | A2 cA BAFE |    A2   cA       BABc     | efed         cBAG       |
A2 cA BAcB | A2 cA BAFE | ((3ded) cA   ((3BcB) AF   | EFAc        TB2 Ae      ||
feae  feae | feae  dcBA |    feae          feae     | efed         cAAe       |
feae  feae | feae  dcBA | Ac ((3efg)       abaf     | efed         ce a2      ||
e3 f  e3 f | e2 cA BAFE |   e3  f         e2 (cA)   | ((3Bcd) (cA) Bc ((3efg) |
agfa  gfeg | fedf  ecAc | ((3ded) (fd) ((3cdc) (ec) | ((3Bcd) (cA) BAFE       |]


